X: 11
T: The Foxhunter's
R: slip jig
M: 9/8
L: 1/8
K: Dmix
| d/c/ |: B2B BGB c2A | B2B BGB A2G | B2B BGB c2A | d2G GAB A2G :|
|: A2e edc Bcd | e2A ABc BAG | G2g gfe dBd | g2G GAB A2G :|


Tune 482	Setting 13390

